assets/img/main-page/team-mobile.svg

<svg width="360" height="983" fill="none" xmlns="http://www.w3.org/2000/svg"><g clip-path="url(#clip0_1209_7983)"><path d="M1649 0H-273v983h1922V0z" fill="#E8F5FE"/><path fill-rule="evenodd" clip-rule="evenodd" d="M1237.56 912.52c-112.77 22.724-252.003-.229-367.876-1.014-132.799-.883-265.599-1.7-398.398-1.7h-744.253l.032-700.041c202.01 0 437.35-22.856 611.388 82.494 84.013 50.844 161.719 115.649 254.522 146.319 53.002 17.525 109.174 23.247 161.98 41.329 83.588 28.642 125.219 82.821 202.761 125.033 75.614 41.133 152.214 85.077 201.814 159.299 13.82 20.665 25.03 42.997 36.24 65.231 13.95 27.694 27.87 55.388 41.79 83.05z" fill="url(#paint0_radial_1209_7983)"/><path d="M1648.9 729.694H-272.935v253.663H1648.9V729.694z" fill="#41AE5B"/><path fill-rule="evenodd" clip-rule="evenodd" d="M829.426 737.476c-11.731-3.924-22.612-10.496-31.533-19.095 4.509 3.891-4.019 10.528-9.346 7.88-5.326-2.649-8.234-8.828-13.561-11.51-5.326-2.681-13.887 3.891-9.411 7.848-4.378-3.728-8.79-7.488-13.169-11.215a60.158 60.158 0 01-13.168 16.512 3746.334 3746.334 0 00-20.554-8.011c-1.242 4.283-2.516 8.566-3.758 12.85a38.708 38.708 0 00-13.267-11.15c-3.889-1.994-11.176.229-8.659 3.826-21.763 1.209-43.788-2.649-63.851-11.248 4.215 4.218-4.771 11.836-8.235 6.964 1.046 5.036.392 10.398-1.765 15.074a2716.596 2716.596 0 00-9.476-16.643c-7.908 4.643-19.704-.752-21.338-9.777-.882 5.559-1.765 11.085-2.647 16.643 1.405-5.264-6.535-9.94-10.457-6.147-3.921 3.793.425 11.869 5.752 10.692-1.863-3.27-4.216-6.866-7.908-7.488-3.693-.653-7.581 4.447-4.706 6.867-15.162-11.15-36.467-13.308-53.557-5.428a261.178 261.178 0 01-40.553-6.441l-.196 12.948c-10.064-8.371-23.919-11.967-36.794-9.515a2510.678 2510.678 0 00-13.986-5.82l-12.548 8.24c-6.241-3.107-12.45-6.18-18.659-9.286 4.967 1.079 2.582 9.809-2.45 10.365-5.033.555-9.281-3.499-12.712-7.226.033-4.022 7.451.163 5.033 3.335-2.419 3.204-7.549 1.863-10.849-.393-3.301-2.256-6.732-5.297-10.718-4.708-3.954.621-5.098 7.978-1.111 7.88-11.699-5.559-21.044-15.956-25.325-28.185-.098 8.632-.163 17.231-.261 25.863-4.15-4.577-8.3-9.122-12.45-13.7l3.333 19.324c-5.425-7.455-13.627-12.817-22.646-14.713 0 3.956.033 7.912.033 11.869-13.79-3.499-28.102-4.905-42.317-4.218 1.961 2.256 1.961 2.288 3.922 4.545-8.366-3.662-16.764-7.292-25.129-10.954a24.363 24.363 0 003.398 13.569 50.642 50.642 0 00-11.012-8.337 13.722 13.722 0 00-1.013 7.585c-5.294-3.073-10.555-6.147-15.848-9.22a12.244 12.244 0 002.745 7.389 91.4 91.4 0 01-19.966-14.256c-1.307 4.774-.523 10.071 2.059 14.289-5.163-2.91-10.326-5.853-15.489-8.763a12.18 12.18 0 01-2.255 8.698 6.279 6.279 0 01-3.366-4.414c-2.81.261-5.49 1.765-7.156 4.021a32.256 32.256 0 00-3.333-12.425c-2.059 3.139-4.117 6.311-6.176 9.45a31.858 31.858 0 00-5.784-12.752c-1.666 4.937-3.366 9.875-5.032 14.844-.621-2.256-1.471-4.773-3.529-5.852-2.092-1.079-5.392.85-4.51 3.008-1.764-2.224-3.529-4.48-5.294-6.703.033 2.877-.718 5.755-2.189 8.207a495.271 495.271 0 00-3.66-5.264c-1.078 1.7-2.189 3.367-3.267 5.068-2.092-1.374-4.183-2.78-6.242-4.153-.882 1.929-1.732 3.858-2.614 5.788-3.562-1.243-7.091-2.453-10.653-3.695-4.803-.131-9.607-.262-14.41-.425 1.405 1.994 2.843 4.021 4.248 6.016a81.895 81.895 0 00-19.182-3.891c2.026 1.668 4.085 3.368 6.111 5.035a217.717 217.717 0 00-65.485 1.766c-6.568 1.177-12.286-5.395-13.038-12.032a15.398 15.398 0 01-1.47 8.272c-6.47-2.583-11.993-7.553-15.228-13.733-.163 3.204-.294 6.376-.457 9.58a31.97 31.97 0 01-13.137-10.299c-.817 2.125-1.6 4.25-2.418 6.343-8.79-6.866-17.58-13.733-26.337-20.566a126.22 126.22 0 00.653 26.517c-4.869-5.493-9.738-11.019-14.607-16.512-.424 4.741-.817 9.482-1.241 14.223-1.046-1.668-2.092-3.368-3.17-5.068-.654 1.7-1.34 3.433-1.993 5.133-5.85-12.294-8.464-26.092-7.516-39.661-.294 15.433-1.83 30.866-4.542 46.103-2.157-16.349-4.28-32.665-6.438-49.013-7.417 12.425-11.11 26.975-10.587 41.427a94.09 94.09 0 01-7.712-29.787 94.202 94.202 0 00-7.875 26.387c-2.81-5.755-5.588-11.51-8.398-17.264-2.255 6.866-4.477 13.7-6.731 20.566-1.994-4.12-4.02-8.24-6.013-12.392-2.157 4.806-4.346 9.613-6.503 14.419-3.659-1.962-6.502-5.362-7.842-9.286a27.436 27.436 0 00-3.104 11.771 72.963 72.963 0 01-8.595-17.1c-.686 5.329-1.339 10.626-2.026 15.956-2.45-1.995-4.901-3.989-7.352-5.951a11.095 11.095 0 00-2.222 5.82 7.747 7.747 0 01-6.241-.85c-1.144 1.798-2.255 3.564-3.399 5.362-7.711-2.943-16.436-3.106-24.279-.523a32.871 32.871 0 00-10.424-8.894c-.882 2.126-1.732 4.284-2.614 6.409-2.026-1.275-5.097-.131-5.784 2.158-13.953-3.237-28.69-2.943-42.48.85 26.044 42.081 65.681 73.961 113.52 86.516 26.763 7.03 54.669 7.848 82.314 8.632 124.01 3.499 248.019 6.997 372.028 10.463 92.999 2.616 183.547 5.428 276.154-3.662 92.672-9.253 183.645-34.266 257.005-91.551z" fill="#41AE5B"/><path fill-rule="evenodd" clip-rule="evenodd" d="M-272.967 777.072c21.73-7.259 39.996-17.526 58.949-30.409-1.634 11.804-3.3 23.608-4.934 35.444a363.672 363.672 0 01113.585-11.967c-12.548 9.318-25.096 18.67-37.611 27.988 16.241-1.046 32.481-2.06 48.722-3.106 3.79-.229 8.07-.327 10.881 2.256 2.81 2.583 1.732 8.698-2.059 8.567 15.587-.523 31.142-1.014 46.729-1.504-.033 5.918-4.575 11.509-10.359 12.752 28.723 3.237 58.296-1.57 84.536-13.668-5.654 8.174 7.417 16.218 17.22 17.689 29.214 4.382 58.394 8.763 87.608 13.144-6.438 3.859-12.842 7.717-19.247 11.575 14.247-2.158 28.331 3.695 41.761 8.926 65.06 25.308 134.695 38.714 204.493 39.368 10.914.098 25.75 12.13 34.115 19.127-148.354 1.439-296.708 3.662-445.062 3.662h-228.87l-.457-139.844z" fill="url(#paint1_linear_1209_7983)"/></g><defs><radialGradient id="paint0_radial_1209_7983" cx="0" cy="0" r="1" gradientUnits="userSpaceOnUse" gradientTransform="rotate(14.841 -68.957 489.083) scale(1117.12 658.457)"><stop stop-color="#41AE5B"/><stop offset="1" stop-color="#126D59"/></radialGradient><linearGradient id="paint1_linear_1209_7983" x1="65.344" y1="630.405" x2="63.925" y2="903.177" gradientUnits="userSpaceOnUse"><stop stop-color="#74BC71"/><stop offset="1" stop-color="#41AE5B"/></linearGradient><clipPath id="clip0_1209_7983"><path fill="#fff" d="M0 0h360v983H0z"/></clipPath></defs></svg>

<svg width="360" height="983" viewBox="0 0 360 983" fill="none" xmlns="http://www.w3.org/2000/svg">
<g clip-path="url(#clip0_1209_7983)">
<path d="M1649 0H-273V983H1649V0Z" fill="#E8F5FE"/>
<path fill-rule="evenodd" clip-rule="evenodd" d="M1237.56 912.52C1124.79 935.244 985.557 912.291 869.684 911.506C736.885 910.623 604.085 909.806 471.286 909.806C220.849 909.806 -22.5303 909.806 -272.967 909.806L-272.935 209.765C-70.925 209.765 164.415 186.909 338.453 292.259C422.466 343.103 500.172 407.908 592.975 438.578C645.977 456.103 702.149 461.825 754.955 479.907C838.543 508.549 880.174 562.728 957.716 604.94C1033.33 646.073 1109.93 690.017 1159.53 764.239C1173.35 784.904 1184.56 807.236 1195.77 829.47C1209.72 857.164 1223.64 884.858 1237.56 912.52Z" fill="url(#paint0_radial_1209_7983)"/>
<path d="M1648.9 729.694H-272.935V983.357H1648.9V729.694Z" fill="#41AE5B"/>
<path fill-rule="evenodd" clip-rule="evenodd" d="M829.426 737.476C817.695 733.552 806.814 726.98 797.893 718.381C802.402 722.272 793.874 728.909 788.547 726.261C783.221 723.612 780.313 717.433 774.986 714.751C769.66 712.07 761.099 718.642 765.575 722.599C761.197 718.871 756.785 715.111 752.406 711.384C749.041 717.596 744.564 723.22 739.238 727.896C732.408 725.214 725.546 722.533 718.684 719.885C717.442 724.168 716.168 728.451 714.926 732.735C711.429 728.092 706.855 724.234 701.659 721.585C697.77 719.591 690.483 721.814 693 725.411C671.237 726.62 649.212 722.762 629.149 714.163C633.364 718.381 624.378 725.999 620.914 721.127C621.96 726.163 621.306 731.525 619.149 736.201C616.012 730.642 612.843 725.084 609.673 719.558C601.765 724.201 589.969 718.806 588.335 709.781C587.453 715.34 586.57 720.866 585.688 726.424C587.093 721.16 579.153 716.484 575.231 720.277C571.31 724.07 575.656 732.146 580.983 730.969C579.12 727.699 576.767 724.103 573.075 723.481C569.382 722.828 565.494 727.928 568.369 730.348C553.207 719.198 531.902 717.04 514.812 724.92C501.152 723.841 487.559 721.683 474.259 718.479C474.194 722.795 474.129 727.111 474.063 731.427C463.999 723.056 450.144 719.46 437.269 721.912C432.596 719.95 427.956 718.021 423.283 716.092C419.1 718.838 414.918 721.585 410.735 724.332C404.494 721.225 398.285 718.152 392.076 715.046C397.043 716.125 394.658 724.855 389.626 725.411C384.593 725.966 380.345 721.912 376.914 718.185C376.947 714.163 384.365 718.348 381.947 721.52C379.528 724.724 374.398 723.383 371.098 721.127C367.797 718.871 364.366 715.83 360.38 716.419C356.426 717.04 355.282 724.397 359.269 724.299C347.57 718.74 338.225 708.343 333.944 696.114C333.846 704.746 333.781 713.345 333.683 721.977C329.533 717.4 325.383 712.855 321.233 708.277C322.344 714.719 323.455 721.16 324.566 727.601C319.141 720.146 310.939 714.784 301.92 712.888C301.92 716.844 301.953 720.8 301.953 724.757C288.163 721.258 273.851 719.852 259.636 720.539C261.597 722.795 261.597 722.827 263.558 725.084C255.192 721.422 246.794 717.792 238.429 714.13C238.2 718.871 239.409 723.645 241.827 727.699C238.56 724.43 234.834 721.618 230.815 719.362C229.769 721.716 229.41 724.397 229.802 726.947C224.508 723.874 219.247 720.8 213.954 717.727C214.019 720.408 214.999 723.024 216.699 725.116C209.444 721.291 202.713 716.484 196.733 710.86C195.426 715.634 196.21 720.931 198.792 725.149C193.629 722.239 188.466 719.296 183.303 716.386C183.695 719.427 182.878 722.599 181.048 725.084C179.316 724.233 178.042 722.566 177.682 720.67C174.872 720.931 172.192 722.435 170.526 724.691C170.264 720.375 169.121 716.125 167.193 712.266C165.134 715.405 163.076 718.577 161.017 721.716C160.069 717.106 158.076 712.724 155.233 708.964C153.567 713.901 151.867 718.839 150.201 723.808C149.58 721.552 148.73 719.035 146.672 717.956C144.58 716.877 141.28 718.806 142.162 720.964C140.398 718.74 138.633 716.484 136.868 714.261C136.901 717.138 136.15 720.016 134.679 722.468C133.47 720.702 132.261 718.969 131.019 717.204C129.941 718.904 128.83 720.571 127.752 722.272C125.66 720.898 123.569 719.492 121.51 718.119C120.628 720.048 119.778 721.977 118.896 723.907C115.334 722.664 111.805 721.454 108.243 720.212C103.44 720.081 98.6364 719.95 93.8328 719.787C95.2379 721.781 96.6757 723.808 98.0808 725.803C91.8722 723.743 85.4021 722.435 78.8994 721.912C80.9254 723.58 82.984 725.28 85.01 726.947C63.2471 724.233 41.092 724.822 19.5251 728.713C12.957 729.89 7.23856 723.318 6.487 716.681C6.7811 719.492 6.25827 722.402 5.01654 724.953C-1.45352 722.37 -6.97595 717.4 -10.211 711.22C-10.3744 714.424 -10.5051 717.596 -10.6685 720.8C-15.8641 718.61 -20.4389 715.013 -23.8046 710.501C-24.6216 712.626 -25.4058 714.751 -26.2228 716.844C-35.0129 709.978 -43.803 703.111 -52.5605 696.278C-53.2794 705.106 -53.0506 713.999 -51.9069 722.795C-56.7758 717.302 -61.6447 711.776 -66.5136 706.283C-66.9384 711.024 -67.3305 715.765 -67.7553 720.506C-68.801 718.838 -69.8466 717.138 -70.925 715.438C-71.5785 717.138 -72.2648 718.871 -72.9183 720.571C-78.7675 708.277 -81.3817 694.479 -80.434 680.91C-80.7281 696.343 -82.2639 711.776 -84.9761 727.013C-87.1328 710.664 -89.2568 694.348 -91.4135 678C-98.8312 690.425 -102.524 704.975 -102.001 719.427C-106.184 710.01 -108.798 699.907 -109.713 689.64C-113.601 697.978 -116.281 706.904 -117.588 716.027C-120.398 710.272 -123.176 704.517 -125.986 698.763C-128.241 705.629 -130.463 712.463 -132.717 719.329C-134.711 715.209 -136.737 711.089 -138.73 706.937C-140.887 711.743 -143.076 716.55 -145.233 721.356C-148.892 719.394 -151.735 715.994 -153.075 712.07C-154.97 715.7 -156.049 719.754 -156.179 723.841C-159.774 718.544 -162.682 712.79 -164.774 706.741C-165.46 712.07 -166.113 717.367 -166.8 722.697C-169.25 720.702 -171.701 718.708 -174.152 716.746C-175.426 718.413 -176.211 720.473 -176.374 722.566C-178.465 723.187 -180.785 722.86 -182.615 721.716C-183.759 723.514 -184.87 725.28 -186.014 727.078C-193.725 724.135 -202.45 723.972 -210.293 726.555C-213.103 722.893 -216.665 719.852 -220.717 717.661C-221.599 719.787 -222.449 721.945 -223.331 724.07C-225.357 722.795 -228.428 723.939 -229.115 726.228C-243.068 722.991 -257.805 723.285 -271.595 727.078C-245.551 769.159 -205.914 801.039 -158.075 813.594C-131.312 820.624 -103.406 821.442 -75.7612 822.226C48.2483 825.725 172.258 829.223 296.267 832.689C389.266 835.305 479.814 838.117 572.421 829.027C665.093 819.774 756.066 794.761 829.426 737.476Z" fill="#41AE5B"/>
<path fill-rule="evenodd" clip-rule="evenodd" d="M-272.967 777.072C-251.237 769.813 -232.971 759.546 -214.018 746.663C-215.652 758.467 -217.318 770.271 -218.952 782.107C-182.027 772.167 -143.533 768.113 -105.367 770.14C-117.915 779.458 -130.463 788.81 -142.978 798.128C-126.737 797.082 -110.497 796.068 -94.2564 795.022C-90.4659 794.793 -86.1852 794.695 -83.3749 797.278C-80.5647 799.861 -81.643 805.976 -85.4336 805.845C-69.8466 805.322 -54.2924 804.831 -38.7054 804.341C-38.7381 810.259 -43.2802 815.85 -49.064 817.093C-20.3409 820.33 9.2319 815.523 35.4716 803.425C29.8185 811.599 42.8893 819.643 52.6924 821.114C81.9057 825.496 111.086 829.877 140.3 834.258C133.862 838.117 127.458 841.975 121.053 845.833C135.3 843.675 149.384 849.528 162.814 854.759C227.874 880.067 297.509 893.473 367.307 894.127C378.221 894.225 393.057 906.257 401.422 913.254C253.068 914.693 104.714 916.916 -43.6396 916.916H-272.51L-272.967 777.072Z" fill="url(#paint1_linear_1209_7983)"/>
</g>
<defs>
<radialGradient id="paint0_radial_1209_7983" cx="0" cy="0" r="1" gradientUnits="userSpaceOnUse" gradientTransform="translate(122.973 33.9785) rotate(14.8411) scale(1117.12 658.457)">
<stop stop-color="#41AE5B"/>
<stop offset="1" stop-color="#126D59"/>
</radialGradient>
<linearGradient id="paint1_linear_1209_7983" x1="65.3437" y1="630.405" x2="63.9254" y2="903.177" gradientUnits="userSpaceOnUse">
<stop stop-color="#74BC71"/>
<stop offset="1" stop-color="#41AE5B"/>
</linearGradient>
<clipPath id="clip0_1209_7983">
<rect width="360" height="983" fill="white"/>
</clipPath>
</defs>
</svg>
